X: 33810
T: Rayleen's
R: reel
M: 4/4
K: Eminor
|:EGBG AGFG|EGBG BcBA|EGBG AGFA|DFAD FADF|
EGBG AGFG|EGBG AGFE|D2 (3.F.E.D DEFA|dAFA BAFA:|
|:BeeB defg|eBBe dece|BeeB defa|(3.g.f.e fd edBA|
BeeB defg|eBB2 defa|g3f edBA|1 GBBG FGAc:|2 GBBG FGAF||

